img/instruction-arrow-2.svg

<svg width="217" height="82" viewBox="0 0 217 82" fill="none" xmlns="http://www.w3.org/2000/svg">
<g clip-path="url(#clip0_1967_28)">
<path d="M3.08479 80.8526C3.23869 81.0818 3.54932 81.143 3.7786 80.9891L7.51494 78.4811C7.74422 78.3272 7.80532 78.0166 7.65142 77.7873C7.49752 77.558 7.18689 77.4969 6.95761 77.6508L3.63643 79.8801L1.40714 76.5589C1.25324 76.3296 0.942615 76.2685 0.713334 76.4224C0.484054 76.5763 0.422947 76.887 0.576847 77.1162L3.08479 80.8526ZM3.99054 80.6704C4.11981 80.0133 4.26592 79.3681 4.42853 78.7346L3.45993 78.486C3.29253 79.1381 3.14224 79.8019 3.00934 80.4774L3.99054 80.6704ZM5.60355 75.0602C6.07799 73.8337 6.62143 72.6551 7.2309 71.5218L6.35019 71.0481C5.7211 72.2179 5.16032 73.4342 4.6709 74.6995L5.60355 75.0602ZM9.27376 68.2287C10.0189 67.1768 10.8286 66.168 11.6998 65.2L10.9565 64.531C10.0602 65.5269 9.22621 66.566 8.45779 67.6506L9.27376 68.2287ZM14.4667 62.4417C15.415 61.59 16.4174 60.7734 17.4714 59.99L16.8749 59.1874C15.7975 59.9882 14.771 60.8242 13.7985 61.6977L14.4667 62.4417ZM20.6952 57.794C21.7902 57.1092 22.9295 56.4528 24.1109 55.823L23.6405 54.9405C22.44 55.5805 21.2807 56.2484 20.165 56.9462L20.6952 57.794ZM27.5939 54.0972C28.7621 53.5587 29.9645 53.0419 31.1996 52.5454L30.8265 51.6176C29.5772 52.1199 28.3594 52.6432 27.1753 53.189L27.5939 54.0972ZM34.8909 51.154C36.0997 50.7266 37.3351 50.3158 38.5957 49.9203L38.2964 48.9662C37.0251 49.365 35.7783 49.7796 34.5576 50.2112L34.8909 51.154ZM42.4016 48.7931C43.6377 48.4474 44.8949 48.1144 46.1719 47.7933L45.928 46.8235C44.643 47.1466 43.3773 47.4818 42.1322 47.8301L42.4016 48.7931ZM50.0232 46.8731C51.2835 46.5869 52.5608 46.3108 53.8541 46.0438L53.6519 45.0644C52.3526 45.3327 51.0688 45.6102 49.8017 45.8979L50.0232 46.8731ZM57.7344 45.2782C59.0097 45.0376 60.2987 44.8048 61.6005 44.5791L61.4296 43.5938C60.1233 43.8203 58.8295 44.054 57.5491 44.2955L57.7344 45.2782ZM65.5017 43.9286C66.7862 43.7225 68.0817 43.5224 69.3874 43.3274L69.2397 42.3384C67.9307 42.5338 66.6316 42.7345 65.3433 42.9412L65.5017 43.9286ZM73.3046 42.7615C74.5949 42.581 75.894 42.4047 77.201 42.2321L77.07 41.2407C75.7607 41.4136 74.4591 41.5902 73.166 41.7711L73.3046 42.7615ZM81.1302 41.7264C82.4244 41.5639 83.7255 41.4042 85.0326 41.2468L84.9131 40.254C83.6045 40.4116 82.3017 40.5714 81.0056 40.7342L81.1302 41.7264ZM88.9694 40.7812C90.2669 40.6302 91.5694 40.4808 92.8762 40.3325L92.7634 39.3389C91.4558 39.4873 90.1524 39.6368 88.8539 39.7879L88.9694 40.7812ZM96.8089 39.8903C98.1116 39.7449 99.4177 39.6 100.727 39.455L100.617 38.4611C99.3075 38.6061 98.0011 38.751 96.698 38.8965L96.8089 39.8903ZM104.655 39.02C105.961 38.8751 107.27 38.7296 108.58 38.5829L108.468 37.5891C107.159 37.7358 105.851 37.8812 104.544 38.0261L104.655 39.02ZM112.504 38.1398C113.812 37.9907 115.121 37.8398 116.43 37.6867L116.314 36.6935C115.006 36.8465 113.698 36.9972 112.391 37.1463L112.504 38.1398ZM120.353 37.2205C121.661 37.0624 122.968 36.9015 124.274 36.7372L124.149 35.7451C122.845 35.9091 121.54 36.0698 120.233 36.2277L120.353 37.2205ZM128.197 36.2325C129.502 36.0606 130.806 35.8847 132.106 35.7044L131.969 34.7139C130.671 34.8938 129.37 35.0694 128.066 35.2411L128.197 36.2325ZM136.029 35.1451C137.333 34.9538 138.634 34.7573 139.93 34.5553L139.776 33.5672C138.483 33.7688 137.185 33.9648 135.884 34.1557L136.029 35.1451ZM143.842 33.9253C145.145 33.7085 146.442 33.4854 147.734 33.2553L147.558 32.2708C146.271 32.5002 144.977 32.7227 143.678 32.9388L143.842 33.9253ZM151.628 32.5362C152.928 32.2874 154.221 32.0307 155.506 31.7656L155.304 30.7862C154.024 31.0503 152.736 31.306 151.44 31.554L151.628 32.5362ZM159.375 30.9362C160.67 30.6475 161.957 30.3494 163.233 30.0412L162.998 29.0692C161.728 29.3759 160.447 29.6727 159.157 29.9601L159.375 30.9362ZM167.067 29.0767C168.354 28.7393 169.629 28.3907 170.893 28.03L170.618 27.0684C169.362 27.427 168.093 27.7738 166.813 28.1094L167.067 29.0767ZM174.68 26.9007C175.952 26.5043 177.211 26.0945 178.455 25.6705L178.132 24.724C176.897 25.145 175.647 25.5521 174.383 25.9459L174.68 26.9007ZM182.18 24.341C183.429 23.8738 184.662 23.3907 185.877 22.8909L185.497 21.9661C184.292 22.4616 183.069 22.9408 181.829 23.4043L182.18 24.341ZM189.513 21.3195C190.727 20.7683 191.922 20.1983 193.095 19.6086L192.645 18.7152C191.485 19.2987 190.303 19.8629 189.1 20.4089L189.513 21.3195ZM196.603 17.7489C197.765 17.0995 198.904 16.4281 200.017 15.7339L199.487 14.8854C198.388 15.5708 197.264 16.234 196.116 16.8759L196.603 17.7489ZM203.339 13.5391C204.427 12.7777 205.487 11.9911 206.518 11.1782L205.899 10.393C204.883 11.1938 203.839 11.969 202.766 12.7198L203.339 13.5391ZM209.573 8.61185C210.563 7.72602 211.52 6.81159 212.444 5.86738L211.729 5.16806C210.822 6.09605 209.88 6.99524 208.906 7.86675L209.573 8.61185ZM215.129 2.92492C215.559 2.41908 215.98 1.90542 216.392 1.3838L215.607 0.76416C215.203 1.27625 214.789 1.78059 214.367 2.27734L215.129 2.92492Z" fill="#707070"/>
</g>
<defs>
<clipPath id="clip0_1967_28">
<rect width="217" height="82" fill="white"/>
</clipPath>
</defs>
</svg>

<svg width="217" height="82" fill="none" xmlns="http://www.w3.org/2000/svg"><g clip-path="url(#clip0_1967_28)"><path d="M3.085 80.853a.5.5 0 00.694.136l3.736-2.508a.5.5 0 10-.557-.83l-3.322 2.23-2.229-3.322a.5.5 0 10-.83.557l2.508 3.737zm.906-.183a34.12 34.12 0 01.438-1.935l-.97-.249a35.807 35.807 0 00-.45 1.991l.982.193zm1.613-5.61a31.314 31.314 0 011.627-3.538l-.88-.474A32.31 32.31 0 004.67 74.7l.933.361zm3.67-6.831A33.305 33.305 0 0111.7 65.2l-.743-.669a34.327 34.327 0 00-2.5 3.12l.817.578zm5.193-5.787a41.885 41.885 0 013.004-2.452l-.596-.803a42.87 42.87 0 00-3.076 2.51l.668.745zm6.228-4.648a57.092 57.092 0 013.416-1.971l-.47-.883a57.917 57.917 0 00-3.476 2.006l.53.848zm6.899-3.697a78.997 78.997 0 013.606-1.552l-.373-.927a80.134 80.134 0 00-3.652 1.571l.419.908zm7.297-2.943c1.209-.427 2.444-.838 3.705-1.234l-.3-.954c-1.27.399-2.518.814-3.738 1.245l.333.943zm7.51-2.36c1.237-.347 2.494-.68 3.77-1l-.243-.97a150.5 150.5 0 00-3.796 1.006l.27.963zm7.622-1.92a198.9 198.9 0 013.831-.83l-.202-.98c-1.3.269-2.583.546-3.85.834l.221.975zm7.711-1.596a282.3 282.3 0 013.866-.699l-.17-.985c-1.307.226-2.6.46-3.88.701l.184.983zm7.768-1.35a362.63 362.63 0 013.885-.6l-.147-.99c-1.31.196-2.608.396-3.897.603l.159.988zm7.803-1.166c1.29-.181 2.589-.357 3.896-.53l-.131-.991c-1.31.173-2.61.35-3.904.53l.139.99zm7.825-1.036a927.6 927.6 0 013.903-.48l-.12-.992a803.77 803.77 0 00-3.907.48l.124.992zm7.84-.945c1.297-.15 2.6-.3 3.906-.448l-.113-.994c-1.307.148-2.61.298-3.91.449l.116.993zm7.839-.89a4599.3 4599.3 0 013.918-.436l-.11-.994c-1.31.145-2.616.29-3.919.436l.11.993zm7.846-.871c1.306-.145 2.615-.29 3.925-.437l-.112-.994c-1.309.147-2.617.292-3.924.437l.111.994zm7.849-.88c1.308-.15 2.617-.3 3.926-.453l-.116-.993c-1.308.152-2.616.303-3.923.452l.113.994zm7.849-.92a813.15 813.15 0 003.921-.483l-.125-.992c-1.304.164-2.609.325-3.916.483l.12.992zm7.844-.987a540.89 540.89 0 003.909-.529l-.137-.99c-1.298.18-2.599.355-3.903.527l.131.992zm7.832-1.088c1.304-.191 2.605-.388 3.901-.59l-.154-.988c-1.293.202-2.591.398-3.892.589l.145.99zm7.813-1.22c1.303-.216 2.6-.44 3.892-.67l-.176-.984c-1.287.23-2.581.452-3.88.668l.164.986zm7.786-1.389c1.3-.249 2.593-.505 3.878-.77l-.202-.98c-1.28.264-2.568.52-3.864.768l.188.982zm7.747-1.6c1.295-.288 2.582-.587 3.858-.895l-.235-.972c-1.27.307-2.551.604-3.841.891l.218.976zm7.692-1.86a179.5 179.5 0 003.826-1.046l-.275-.962c-1.256.359-2.525.706-3.805 1.041l.254.968zm7.613-2.175c1.272-.397 2.531-.806 3.775-1.23l-.323-.947c-1.235.421-2.485.828-3.749 1.222l.297.955zm7.5-2.56c1.249-.467 2.482-.95 3.697-1.45l-.38-.925c-1.205.496-2.428.975-3.668 1.438l.351.937zm7.333-3.021a100.227 100.227 0 003.582-1.711l-.45-.894a98.249 98.249 0 01-3.545 1.694l.413.91zm7.09-3.571a82.524 82.524 0 003.414-2.015l-.53-.849a81.916 81.916 0 01-3.371 1.99l.487.874zm6.736-4.21a69.397 69.397 0 003.179-2.36l-.619-.786c-1.016.8-2.06 1.576-3.133 2.327l.573.82zm6.234-4.927c.99-.886 1.947-1.8 2.871-2.745l-.715-.699a58.37 58.37 0 01-2.823 2.699l.667.745zm5.556-5.687c.43-.506.851-1.02 1.263-1.541l-.785-.62a53.959 53.959 0 01-1.24 1.513l.762.648z" fill="#707070"/></g><defs><clipPath id="clip0_1967_28"><path fill="#fff" d="M0 0h217v82H0z"/></clipPath></defs></svg>
